X: 8
T: Maudabawn Chapel
R: reel
M: 4/4
L: 1/8
K: Gmaj
 |: E2 BE dEBE| Ed^cB AD (3FED|~E3 F GFGB|A ~F2 D A,DFD|
 EBBA B3 d|BAGA B^cde| fd ~d2 gfe^c|1 "D" dBAF  GEED:|2  dBAF  GEEF||


